x-pack/solutions/observability/plugins/observability/public/pages/overview/components/sections/metrics/logos/solaris.svg

<?xml version="1.0" encoding="UTF-8" standalone="no"?>
<!-- Created with Inkscape (http://www.inkscape.org/) --><svg height="256" id="svg2" inkscape:output_extension="org.inkscape.output.svg.inkscape" inkscape:version="0.46" sodipodi:docname="distributions-solaris.svg" sodipodi:version="0.32" version="1.0" width="256" xmlns="http://www.w3.org/2000/svg" xmlns:cc="http://creativecommons.org/ns#" xmlns:dc="http://purl.org/dc/elements/1.1/" xmlns:inkscape="http://www.inkscape.org/namespaces/inkscape" xmlns:rdf="http://www.w3.org/1999/02/22-rdf-syntax-ns#" xmlns:sodipodi="http://sodipodi.sourceforge.net/DTD/sodipodi-0.dtd" xmlns:svg="http://www.w3.org/2000/svg">
  <metadata>
    <rdf:RDF xmlns:cc="http://web.resource.org/cc/" xmlns:dc="http://purl.org/dc/elements/1.1/" xmlns:rdf="http://www.w3.org/1999/02/22-rdf-syntax-ns#">
      <cc:Work rdf:about="">
        <dc:title></dc:title>
        <dc:description></dc:description>
        <dc:subject>
          <rdf:Bag>
            <rdf:li>unsorted</rdf:li>
          </rdf:Bag>
        </dc:subject>
        <dc:publisher>
          <cc:Agent rdf:about="http://www.openclipart.org/">
            <dc:title>Open Clip Art Library, Source: Open Icon Library</dc:title>
          </cc:Agent>
        </dc:publisher>
        <dc:creator>
          <cc:Agent>
            <dc:title></dc:title>
          </cc:Agent>
        </dc:creator>
        <dc:rights>
          <cc:Agent>
            <dc:title></dc:title>
          </cc:Agent>
        </dc:rights>
        <dc:date></dc:date>
        <dc:format>image/svg+xml</dc:format>
        <dc:type rdf:resource="http://purl.org/dc/dcmitype/StillImage"/>
        <cc:license rdf:resource="http://web.resource.org/cc/PublicDomain"/>
        <dc:language>en</dc:language>
      </cc:Work>
      <cc:License rdf:about="http://web.resource.org/cc/PublicDomain">
        <cc:permits rdf:resource="http://web.resource.org/cc/Reproduction"/>
        <cc:permits rdf:resource="http://web.resource.org/cc/Distribution"/>
        <cc:permits rdf:resource="http://web.resource.org/cc/DerivativeWorks"/>
      </cc:License>
    </rdf:RDF>
  </metadata>
  <defs id="defs4">
    <inkscape:perspective id="perspective10" inkscape:persp3d-origin="372.04724 : 350.78739 : 1" inkscape:vp_x="0 : 526.18109 : 1" inkscape:vp_y="0 : 1000 : 0" inkscape:vp_z="744.09448 : 526.18109 : 1" sodipodi:type="inkscape:persp3d"/>
    <inkscape:perspective id="perspective2447" inkscape:persp3d-origin="372.04724 : 350.78739 : 1" inkscape:vp_x="0 : 526.18109 : 1" inkscape:vp_y="0 : 1000 : 0" inkscape:vp_z="744.09448 : 526.18109 : 1" sodipodi:type="inkscape:persp3d"/>
  </defs>
  <sodipodi:namedview bordercolor="#666666" borderopacity="1.0" gridtolerance="10000" guidetolerance="10" id="base" inkscape:current-layer="layer1" inkscape:cx="135.12026" inkscape:cy="170.7944" inkscape:document-units="px" inkscape:pageopacity="0.0" inkscape:pageshadow="2" inkscape:window-height="695" inkscape:window-width="1026" inkscape:window-x="14" inkscape:window-y="304" inkscape:zoom="0.49497475" objecttolerance="10" pagecolor="#ffffff" showgrid="false"/>
  <g id="layer1" inkscape:groupmode="layer" inkscape:label="Layer 1">
    <path d="M 79.161132,140.51003 L 11.33778,103.91758 L 86.568461,118.27664 L 79.161132,140.51003 z" id="path2453" sodipodi:nodetypes="cccc" style="fill:#c1003f;fill-opacity:1;fill-rule:evenodd;stroke:#c1003f;stroke-width:1px;stroke-linecap:butt;stroke-linejoin:miter;stroke-opacity:1"/>
    <path d="M 89.577687,112.71829 L 48.374422,45.091762 L 106.24417,98.822435 L 89.577687,112.71829 z" id="path2455" sodipodi:nodetypes="cccc" style="fill:#c1003f;fill-opacity:1;fill-rule:evenodd;stroke:#c1003f;stroke-width:1px;stroke-linecap:butt;stroke-linejoin:miter;stroke-opacity:1"/>
    <path d="M 134.02166,93.26409 L 115.50334,16.836839 L 112.72558,95.580067 L 134.02166,93.26409 z" id="path2457" sodipodi:nodetypes="cccc" style="fill:#c1003f;fill-opacity:1;fill-rule:evenodd;stroke:#c1003f;stroke-width:1px;stroke-linecap:butt;stroke-linejoin:miter;stroke-opacity:1"/>
    <path d="M 141.66047,94.42208 L 185.32405,29.178587 L 160.64174,104.38078 L 141.66047,94.42208 z" id="path2459" sodipodi:nodetypes="cccc" style="fill:#c1003f;fill-opacity:1;fill-rule:evenodd;stroke:#c1003f;stroke-width:1px;stroke-linecap:butt;stroke-linejoin:miter;stroke-opacity:1"/>
    <path d="M 177.53971,130.31973 L 166.42872,110.40232 L 234.88038,79.223188 L 177.53971,130.31973 z" id="path2461" sodipodi:nodetypes="cccc" style="fill:#c1003f;fill-opacity:1;fill-rule:evenodd;stroke:#c1003f;stroke-width:1px;stroke-linecap:butt;stroke-linejoin:miter;stroke-opacity:1"/>
    <path d="M 253.54829,146.95649 C 180.91327,134.57788 3.3912247,147.18787 5.0521749,183.5576 C 5.8818386,212.30233 118.37101,219.37995 184.52159,218.6012 C 121.91917,213.36534 74.866933,203.38605 74.078875,185.89383 C 74.927241,155.23904 156.24465,150.16883 253.54829,146.95649 z" id="path3241" sodipodi:nodetypes="ccccc" style="fill:#4a3c7b;fill-opacity:1;fill-rule:evenodd;stroke:#4a3c7b;stroke-width:1px;stroke-linecap:butt;stroke-linejoin:miter;stroke-opacity:1"/>
  </g>
</svg>

<svg xmlns="http://www.w3.org/2000/svg" width="256" height="256" version="1.0"><path d="m79.161 140.51-67.823-36.592 75.23 14.359zM89.578 112.718 48.374 45.092l57.87 53.73zM134.022 93.264l-18.519-76.427-2.777 78.743zM141.66 94.422l43.664-65.243-24.682 75.202zM177.54 130.32l-11.111-19.918 68.451-31.179z" style="fill:#c1003f;fill-opacity:1;fill-rule:evenodd;stroke:#c1003f;stroke-width:1px;stroke-linecap:butt;stroke-linejoin:miter;stroke-opacity:1"/><path d="M253.548 146.956c-72.635-12.378-250.157.232-248.496 36.602.83 28.744 113.319 35.822 179.47 35.043-62.603-5.236-109.655-15.215-110.443-32.707.848-30.655 82.166-35.725 179.47-38.938z" style="fill:#4a3c7b;fill-opacity:1;fill-rule:evenodd;stroke:#4a3c7b;stroke-width:1px;stroke-linecap:butt;stroke-linejoin:miter;stroke-opacity:1"/></svg>
